src/assets/icons/subscribe-add.svg

<svg widh="100%" height="100%" viewBox="0 0 24 24" fill="current"
  xmlns="http://www.w3.org/2000/svg">
  <path fill-rule="evenodd" clip-rule="evenodd" d="M1.46447 15.4645C2.40215 14.5268 3.67392 14 5 14H12C13.3261 14 14.5979 14.5268 15.5355 15.4645C16.4732 16.4021 17 17.6739 17 19V21C17 21.5523 16.5523 22 16 22C15.4477 22 15 21.5523 15 21V19C15 18.2044 14.6839 17.4413 14.1213 16.8787C13.5587 16.3161 12.7956 16 12 16H5C4.20435 16 3.44129 16.3161 2.87868 16.8787C2.31607 17.4413 2 18.2044 2 19V21C2 21.5523 1.55228 22 1 22C0.447715 22 0 21.5523 0 21V19C0 17.6739 0.526784 16.4021 1.46447 15.4645Z" />
  <path fill-rule="evenodd" clip-rule="evenodd" d="M8.5 4C6.84315 4 5.5 5.34315 5.5 7C5.5 8.65685 6.84315 10 8.5 10C10.1569 10 11.5 8.65685 11.5 7C11.5 5.34315 10.1569 4 8.5 4ZM3.5 7C3.5 4.23858 5.73858 2 8.5 2C11.2614 2 13.5 4.23858 13.5 7C13.5 9.76142 11.2614 12 8.5 12C5.73858 12 3.5 9.76142 3.5 7Z" />
  <path fill-rule="evenodd" clip-rule="evenodd" d="M20 7C20.5523 7 21 7.44772 21 8V14C21 14.5523 20.5523 15 20 15C19.4477 15 19 14.5523 19 14V8C19 7.44772 19.4477 7 20 7Z" />
  <path fill-rule="evenodd" clip-rule="evenodd" d="M16 11C16 10.4477 16.4477 10 17 10H23C23.5523 10 24 10.4477 24 11C24 11.5523 23.5523 12 23 12H17C16.4477 12 16 11.5523 16 11Z" />
</svg>

<svg xmlns="http://www.w3.org/2000/svg" fill="currentColor" viewBox="0 0 24 24">
  <path fill-rule="evenodd" d="M1.464 15.464A5 5 0 0 1 5 14h7a5 5 0 0 1 5 5v2a1 1 0 1 1-2 0v-2a3 3 0 0 0-3-3H5a3 3 0 0 0-3 3v2a1 1 0 1 1-2 0v-2a5 5 0 0 1 1.464-3.536ZM8.5 4a3 3 0 1 0 0 6 3 3 0 0 0 0-6Zm-5 3a5 5 0 1 1 10 0 5 5 0 0 1-10 0ZM20 7a1 1 0 0 1 1 1v6a1 1 0 1 1-2 0V8a1 1 0 0 1 1-1Z" clip-rule="evenodd"/>
  <path fill-rule="evenodd" d="M16 11a1 1 0 0 1 1-1h6a1 1 0 1 1 0 2h-6a1 1 0 0 1-1-1Z" clip-rule="evenodd"/>
</svg>
